public/logosyoutube.svg

<svg width="61" height="40" viewBox="0 0 61 40" fill="none" xmlns="http://www.w3.org/2000/svg">
<g clip-path="url(#clip0_1852_171)">
<path d="M59.1737 6.23889C58.8296 5.03301 58.1583 3.93365 57.2267 3.05028C56.2951 2.16692 55.1356 1.53036 53.8638 1.204C49.2078 0 30.469 0 30.469 0C30.469 0 11.7292 0.0364443 7.0732 1.24044C5.80139 1.56682 4.64194 2.20341 3.71032 3.08682C2.7787 3.97023 2.10741 5.06964 1.7633 6.27556C0.35497 14.1196 -0.191348 26.072 1.80197 33.6022C2.14612 34.8081 2.81742 35.9075 3.74904 36.7908C4.68066 37.6742 5.84009 38.3108 7.11187 38.6371C11.7679 39.8411 30.5072 39.8411 30.5072 39.8411C30.5072 39.8411 49.2463 39.8411 53.902 38.6371C55.1739 38.3108 56.3334 37.6742 57.265 36.7909C58.1967 35.9075 58.868 34.8081 59.2122 33.6022C60.6976 25.7471 61.1553 13.802 59.1737 6.23889Z" fill="#FF0000"/>
<path d="M24.5059 28.4575L40.0512 19.9201L24.5059 11.3828V28.4575Z" fill="white"/>
</g>
<defs>
<clipPath id="clip0_1852_171">
<rect width="60" height="40" fill="white" transform="translate(0.5)"/>
</clipPath>
</defs>
</svg>

<svg width="61" height="40" fill="none" xmlns="http://www.w3.org/2000/svg"><g clip-path="url(#a)"><path d="M59.174 6.239a7.075 7.075 0 0 0-1.947-3.189 7.647 7.647 0 0 0-3.363-1.846C49.208 0 30.469 0 30.469 0S11.729.036 7.073 1.24A7.647 7.647 0 0 0 3.71 3.087a7.075 7.075 0 0 0-1.947 3.189C.355 14.12-.19 26.072 1.802 33.602a7.075 7.075 0 0 0 1.947 3.189 7.646 7.646 0 0 0 3.363 1.846c4.656 1.204 23.395 1.204 23.395 1.204s18.74 0 23.395-1.204a7.646 7.646 0 0 0 3.363-1.846 7.076 7.076 0 0 0 1.947-3.189c1.486-7.855 1.943-19.8-.038-27.363z" fill="red"/><path d="M24.506 28.457 40.05 19.92l-15.545-8.537v17.075z" fill="#fff"/></g><defs><clipPath id="a"><path fill="#fff" transform="translate(.5)" d="M0 0h60v40H0z"/></clipPath></defs></svg>
